frontend/src/assets/icons/info.svg

<svg width="current" height="current" viewBox="0 0 24 24" fill="none" xmlns="http://www.w3.org/2000/svg">
<path d="M12 24C18.5529 24 24 18.5647 24 12C24 5.44707 18.5411 0 11.9882 0C5.42347 0 0 5.44707 0 12C0 18.5647 5.43527 24 12 24ZM12 22C6.44702 22 2.0117 17.5529 2.0117 12C2.0117 6.45882 6.43527 2.00001 11.9882 2.00001C17.5293 2.00001 21.9881 6.45882 22 12C22.0118 17.5529 17.5411 22 12 22ZM11.8941 7.8118C12.7529 7.8118 13.4235 7.12938 13.4235 6.28238C13.4235 5.42352 12.7529 4.74116 11.8941 4.74116C11.0352 4.74116 10.3647 5.42352 10.3647 6.28238C10.3647 7.12938 11.0352 7.8118 11.8941 7.8118ZM9.92937 18.4706H14.7294C15.2117 18.4706 15.5882 18.1294 15.5882 17.647C15.5882 17.1882 15.2117 16.8235 14.7294 16.8235H13.2706V10.8353C13.2706 10.2 12.9411 9.77647 12.3529 9.77647H10.1293C9.65876 9.77647 9.28229 10.1411 9.28229 10.6C9.28229 11.0824 9.65876 11.4235 10.1293 11.4235H11.4V16.8235H9.92937C9.45878 16.8235 9.08231 17.1882 9.08231 17.647C9.08231 18.1294 9.45878 18.4706 9.92937 18.4706Z" fill="black"/>
</svg>

<svg width="current" height="current" viewBox="0 0 24 24" fill="none" xmlns="http://www.w3.org/2000/svg"><path d="M12 24c6.553 0 12-5.435 12-12 0-6.553-5.459-12-12.012-12C5.423 0 0 5.447 0 12c0 6.565 5.435 12 12 12zm0-2a9.952 9.952 0 0 1-9.988-10c0-5.541 4.423-10 9.976-10 5.541 0 10 4.459 10.012 10 .012 5.553-4.459 10-10 10zm-.106-14.188c.859 0 1.53-.683 1.53-1.53 0-.858-.671-1.54-1.53-1.54s-1.53.682-1.53 1.54c0 .847.671 1.53 1.53 1.53zM9.93 18.47h4.8c.483 0 .86-.342.86-.824 0-.459-.377-.823-.86-.823h-1.458v-5.989c0-.635-.33-1.059-.918-1.059h-2.224a.831.831 0 0 0-.847.824c0 .482.377.824.847.824H11.4v5.4H9.93a.831.831 0 0 0-.848.823c0 .482.377.824.847.824z" fill="#000"/></svg>
